X:34
T:There came a Maid
T:pretty
Z:Jack Campin - http://www.campin.me.uk
S:Blaikie MS (NLS MS.1578) p12
N:Blaikie #33
M:C
L:1/8
V:1 midi program 1 74
V:2 midi program 1 46 bass middle = d transpose -24
Q:1/4=90
K:E Minor
[V:1] B2|BGFE F2B2|AGFE E2GA|Bc`dc  BG`FE|F4    z2
[V:2] z2|e2e2 B2B2|e2E2 e2z2|g2 z2  g2 z2|d2d'2 d2
%
[V:1] D2|G3 A B2Bc|dcBd e2d2|e2 B^c d2 F2|D3 E  F2
[V:2] c2|B2A2 G2g2|G2g2 G2g2|c'2g2  f2 d2|f2e2  d2
%
[V:1] zD|G3 A B2Bc|dcBd e2d2|e2 BA  d2 F2|E4    z2|]
[V:2] c2|B2A2 G2g2|G2g2 G2g2|c2 c2  d2^d2|e4    z2|]
W:Transcription (c) Jack Campin 2009, no mirroring or republication without permission

